!! 00000] TT[00
!! NN
!!!OTL: Changgong ku
!!!ARE: Asia, China,ÿHubei, Laifeng
!! Ethnic Group: Han
!! I, 443
!!!SCT: C0112
!!!YEM: Copyright 1995, estate of Helmut Schaffrath.
**kern
*ICvox
*Ivox
!! Mixed meters:  3/4; 2/4
*M2/4
*k[]
*C:
{8cc
8cc
16dd
16ee
8dd
=1
8dd
16dd
16ee
8gg
16gg
16ee
=2
2dd}
=3
{8dd
8dd
16dd
16cc
8a
2r}
{8dd
8ee
8dd
8ee
=4
8dd
8ee
8dd
8dd
=5
2cc
=6
*M3/4
4r
2r}
=7
*M2/4
{8.cc
16dd
8dd
16dd
16ee
=8
8dd
8ee
16ee
8dd
32cc
32dd
=9
*M3/4
16dd
16cc
8a
2r}
=10
*M2/4
{16ee
16dd
8dd
16cc
8.cc
=11
8dd
8dd
16ee
16dd
8dd
=12
2cc}
==
!!!AGN: Shange, Diqiang. Changgong suku
!! Vereinzelt Verzierungen.
!!!ONB: ESAC (Essen Associative Code) Database: CHINA
!!!AMT: irregular
!!!AIN: vox
!!!EED: Helmut Schaffrath
!!!EEV: 1.0
*-
!!!ONB: Strange 2n token in data
